X: 4
T: The Longford Collector
R: reel
M: 4/4
L: 1/8
K: Gmaj
|:"G"G/G/G GA Bcdg|"Em"eB B/B/B "D"eBdB|"G"G/G/G GA "Em"B2 dB|"Am"AcBA "D"GEDE|
"G"G/G/G GA Bcdg|"Em"eB B/B/B "D"d2 ef|"G"g/g/g af gedB|"Am"AcBA "D"GEDE :|
|:"G"g/g/g ga gedg|"Em"eB B/B/B "D"d2 ef|"G"g/g/g af gedB|"Am"AcBA "D"GEDE|
"G"g/g/g ga gedg|"Em"eB B/B/B "D"d2 ef|"G"gbaf gedB|"Am"AcBA "D"GEDE:|


Tune 563	Setting 24745

